Flat-Remix-Dark/apps/scalable/chrome-store.svg

<svg xmlns="http://www.w3.org/2000/svg" xmlns:xlink="http://www.w3.org/1999/xlink" width="384pt" height="384pt" version="1.1" viewBox="0 0 384 384"> <defs> <filter id="alpha" width="100%" height="100%" x="0%" y="0%" filterUnits="objectBoundingBox"> <feColorMatrix in="SourceGraphic" type="matrix" values="0 0 0 0 1 0 0 0 0 1 0 0 0 0 1 0 0 0 1 0"/> </filter> <filter id="alpha-3" width="100%" height="100%" x="0%" y="0%" filterUnits="objectBoundingBox"> <feColorMatrix in="SourceGraphic" type="matrix" values="0 0 0 0 1 0 0 0 0 1 0 0 0 0 1 0 0 0 1 0"/> </filter> <linearGradient id="linear0" x1="166.473" x2="283.557" y1="270.989" y2="370.274" gradientTransform="matrix(0.753855,0,0,0.695416,-7.619448,6.117046)" gradientUnits="userSpaceOnUse"> <stop offset="0" style="stop-color:rgb(90.196%,90.196%,90.196%)"/> <stop offset="1" style="stop-color:rgb(100.000%,100.000%,100.000%)"/> </linearGradient> <mask id="mask1"> <g filter="url(#alpha)" style="filter:url(#alpha-3)"> <rect width="384" height="384" x="0" y="0" style="fill:rgb(0%,0%,0%);fill-opacity:0.301961"/> </g> </mask> <clipPath id="clip1-6"> <rect width="384" height="384" x="0" y="0"/> </clipPath> <g id="surface9" clip-path="url(#clip1-6)"> <path style="fill:rgb(0%,0%,0%)" d="M 354.910156 313.488281 C 354.910156 316.863281 352.339844 319.609375 349.042969 319.898438 L 21.292969 319.898438 C 18.683594 319.671875 16.535156 317.902344 15.75 315.5 L 15.75 323 C 16.535156 325.402344 18.683594 327.171875 21.292969 327.398438 L 349.042969 327.398438 C 352.339844 327.109375 354.910156 324.363281 354.910156 320.988281 Z M 354.910156 313.488281"/> </g> <mask id="mask4"> <g filter="url(#alpha)" style="filter:url(#alpha-3)"> <rect width="384" height="384" x="0" y="0" style="fill:rgb(0%,0%,0%);fill-opacity:0.501961"/> </g> </mask> <clipPath id="clip3-9"> <rect width="384" height="384" x="0" y="0"/> </clipPath> <g id="surface19" clip-path="url(#clip3-9)"> <path style="fill:rgb(100.000%,100.000%,100.000%)" d="M 15.75 102.65625 C 15.75 99.28125 18.320312 96.535156 21.617188 96.246094 L 349.367188 96.246094 C 351.972656 96.476562 354.125 98.242188 354.910156 100.644531 L 354.910156 93.144531 C 354.125 90.742188 351.972656 88.976562 349.367188 88.746094 L 21.617188 88.746094 C 18.320312 89.035156 15.75 91.78125 15.75 95.15625 Z M 15.75 102.65625"/> </g> </defs> <path d="m 131.90621,49.148438 -14.0098,11.90625 v 27.75 H 29.501421 c -1.880979,0.613281 -3.360732,2.164062 -3.971775,4.144531 V 323 c 0.732515,2.38672 2.734966,4.14844 5.168092,4.39844 H 339.6569 c 3.0773,-0.31641 5.47361,-3.05469 5.47361,-6.41016 V 94.960938 c 0,-2.90625 -1.79631,-5.347657 -4.27729,-6.15625 H 252.83736 V 61.78125 l -14.4552,-12.632812 0.0368,39.65625 H 131.82519 Z m 0,0" style="opacity:0.3"/> <path d="M 128.67187,49.132812 H 241.63281 V 61.644531 H 128.67187 Z m 0,0" style="fill:rgb(70.196%,70.196%,70.196%)"/> <path d="m 128.63672,49.148438 -14.86719,11.90625 v 27.75 H 19.964844 C 17.96875,89.417969 16.398438,90.96875 15.75,92.949219 V 323 c 0.777344,2.38672 2.902344,4.14844 5.484375,4.39844 H 349.10156 c 3.26563,-0.31641 5.8086,-3.05469 5.8086,-6.41016 V 94.960938 c 0,-2.90625 -1.90625,-5.347657 -4.53907,-6.15625 H 256.96875 V 61.78125 l -15.33984,-12.632812 0.0391,39.65625 H 128.55078 Z m 0,0" style="fill:url(#linear0)"/> <path d="M 15.75,248.27344 V 323 c 0.785156,2.40234 2.933594,4.17187 5.542969,4.39844 H 349.04297 c 3.29687,-0.28907 5.86719,-3.03516 5.86719,-6.41016 v -72.71484 z m 0,0" style="fill:rgb(100.000%,100.000%,100.000%)"/> <use width="100%" height="100%" x="0" y="0" mask="url(#mask4)" xlink:href="#surface19"/> <path style="fill:rgb(100.000%,78.039%,18.823%)" d="m 311.15479,254.07569 -117.06006,0.0469 25.97168,73.27588 h 107.4038 c 0.0891,-2.08312 0.14502,-4.17475 0.14502,-6.27979 0,-24.19853 -5.95433,-47.00136 -16.46044,-67.04296 z"/> <path style="fill:rgb(83.137%,9.803%,9.803%)" d="m 183.02637,176.52979 c -51.98167,0 -97.549927,27.43854 -123.033694,68.61621 l 50.207514,82.25244 h 17.9004 l 54.92578,-74.17969 c 3.521,0.0301 7.03506,0.33149 10.50586,0.90381 l 117.62256,-0.0469 c -24.16841,-46.09435 -72.4718,-77.5459 -128.12842,-77.5459 z"/> <path style="fill:rgb(4.705%,63.137%,36.862%)" d="M 59.992676,245.146 C 46.330379,267.22256 38.4375,293.24851 38.4375,321.11865 c 0,2.10469 0.05306,4.19702 0.14209,6.27979 h 71.6206 z"/> <path d="m 311.16797,254.042 -120.12891,0.0703 24.60792,30.6416 z" style="opacity:0.3;fill-opacity:0.95295697"/> <path d="m 59.881348,245.14892 50.283692,82.24952 h 19.67285 l 6.03076,-16.72705 z" style="opacity:0.3;fill-opacity:0.95295697"/> <path d="m 183.02637,253.21875 c -37.49937,0 -67.89991,30.40054 -67.89991,67.8999 0,2.11793 0.10176,4.21134 0.29151,6.27979 h 135.2168 c 0.18975,-2.06845 0.2915,-4.16186 0.2915,-6.27979 0,-37.49936 -30.40054,-67.8999 -67.8999,-67.8999 z" style="fill:rgb(100.000%,100.000%,100.000%)"/> <path d="m 183.02637,265.08984 c -30.94266,0 -56.02881,25.08615 -56.02881,56.02881 0,2.1239 0.13019,4.21731 0.36035,6.27979 h 111.33692 c 0.23015,-2.06248 0.36034,-4.15589 0.36034,-6.27979 0,-30.94266 -25.08614,-56.02881 -56.0288,-56.02881 z" style="fill:rgb(21.176%,48.235%,94.117%)"/> <use width="100%" height="100%" x="0" y="0" mask="url(#mask1)" xlink:href="#surface9"/> </svg>

<svg width="512" height="512" version="1.1" viewBox="0 0 384 384" xmlns="http://www.w3.org/2000/svg" xmlns:xlink="http://www.w3.org/1999/xlink"><defs><filter id="e" x="0%" y="0%" width="100%" height="100%"><feColorMatrix in="SourceGraphic" values="0 0 0 0 1 0 0 0 0 1 0 0 0 0 1 0 0 0 1 0"/></filter><linearGradient id="c" x1="166.47" x2="283.56" y1="270.99" y2="370.27" gradientTransform="matrix(.75386 0 0 .69542 -7.6194 6.117)" gradientUnits="userSpaceOnUse"><stop stop-color="#e5e5e5" offset="0"/><stop stop-color="#fff" offset="1"/></linearGradient><clipPath><rect width="384" height="384"/></clipPath><mask id="b"><g filter="url(#e)"><rect width="384" height="384" fill-opacity=".50196"/></g></mask><clipPath id="d"><rect width="384" height="384"/></clipPath><g id="a" clip-path="url(#d)"><path d="m15.75 102.66c0-3.375 2.5703-6.1211 5.8672-6.4102h327.75c2.6055 0.23047 4.7578 1.9961 5.543 4.3984v-7.5c-0.78516-2.4023-2.9375-4.168-5.543-4.3984h-327.75c-3.2969 0.28906-5.8672 3.0352-5.8672 6.4102z" fill="#fff"/></g></defs><path d="m131.91 49.148-14.01 11.906v27.75h-88.395c-1.881 0.61328-3.3607 2.1641-3.9718 4.1445v230.05c0.73252 2.3867 2.735 4.1484 5.1681 4.3984h308.96c3.0773-0.31641 5.4736-3.0547 5.4736-6.4102v-226.03c0-2.9062-1.7963-5.3477-4.2773-6.1562h-88.016v-27.023l-14.455-12.633 0.0368 39.656h-106.59z" opacity=".3"/><path d="m128.67 49.133h112.96v12.512h-112.96z" fill="#b2b2b2"/><path d="m128.64 49.148-14.867 11.906v27.75h-93.805c-1.9961 0.61328-3.5664 2.1641-4.2148 4.1445v230.05c0.77734 2.3867 2.9023 4.1484 5.4844 4.3984h327.87c3.2656-0.31641 5.8086-3.0547 5.8086-6.4102v-226.03c0-2.9062-1.9062-5.3477-4.5391-6.1562h-93.402v-27.023l-15.34-12.633 0.0391 39.656h-113.12z" fill="url(#c)"/><path d="m15.75 248.27v74.727c0.78516 2.4023 2.9336 4.1719 5.543 4.3984h327.75c3.2969-0.28907 5.8672-3.0352 5.8672-6.4102v-72.715z" fill="#fff"/><use width="100%" height="100%" mask="url(#b)" xlink:href="#a"/><path d="m311.15 254.08-117.06 0.0469 25.972 73.276h107.4c0.0891-2.0831 0.14502-4.1748 0.14502-6.2798 0-24.199-5.9543-47.001-16.46-67.043z" fill="#ffc62f"/><path d="m183.03 176.53c-51.982 0-97.55 27.439-123.03 68.616l50.208 82.252h17.9l54.926-74.18c3.521 0.0301 7.0351 0.33149 10.506 0.90381l117.62-0.0469c-24.168-46.094-72.472-77.546-128.13-77.546z" fill="#d31818"/><path d="m59.993 245.15c-13.662 22.077-21.555 48.103-21.555 75.973 0 2.1047 0.05306 4.197 0.14209 6.2798h71.621z" fill="#0ba05d"/><path d="m311.17 254.04-120.13 0.0703 24.608 30.642z" fill-opacity=".95296" opacity=".3"/><path d="m59.881 245.15 50.284 82.25h19.673l6.0308-16.727z" fill-opacity=".95296" opacity=".3"/><path d="m183.03 253.22c-37.499 0-67.9 30.401-67.9 67.9 0 2.1179 0.10176 4.2113 0.29151 6.2798h135.22c0.18975-2.0684 0.2915-4.1619 0.2915-6.2798 0-37.499-30.401-67.9-67.9-67.9z" fill="#fff"/><path d="m183.03 265.09c-30.943 0-56.029 25.086-56.029 56.029 0 2.1239 0.13019 4.2173 0.36035 6.2798h111.34c0.23015-2.0625 0.36034-4.1559 0.36034-6.2798 0-30.943-25.086-56.029-56.029-56.029z" fill="#357aef"/><path transform="scale(.75)" d="m473.21 417.98c0 4.5-3.4264 8.1614-7.8223 8.5469h-437c-3.4792-0.30211-6.3437-2.6621-7.3906-5.8652v10c1.0469 3.2031 3.9114 5.5631 7.3906 5.8652h437c4.3958-0.38543 7.8223-4.0469 7.8223-8.5469v-10z" opacity=".3" stroke-width="1.3333"/></svg>
